X: 1
T: Thomas and Sally
R: reel
O: RSCDS 21-3(II)
B: RSCDS 21-3(II)
Z: 1997 by John Chambers <jc:trillian.mit.edu>
M: C|
L: 1/8
K: C
|: "C"c2 e/f/g e2dc | "Dm"d/e/f Ad "G7"B2AG \
| "C"c2 Ge "Dm"d2Af | "C"egfe "G7"[d4B4] |
| "C"c2 e/f/g e2dc | "Dm"d/e/f Ad "G7"B2AG \
| "C"c2 Ge "Dm"d2Af | "C"e/f/g "G7"FB "C"[c2E2] C2 :|
|: "C"G2EG cGec | "G7"dBAG F/G/A DB \
| "C"c2dB c2ec | "D7"B/c/d D^F "G"G2G,2 |
| "C"c2 e/f/g e2dc | "Dm"d/e/f Ad "G7"B2AG \
| "C"c2 Ge "Dm"d2Af | "C"e/f/g "G7"FB "C"[c2E2] C2 :|
